X:7896
T:The foggy, foggy dew
C:anon.
O:England
Z:Transcribed by Frank Nordberg - http://www.musicaviva.com
F:http://abc.musicaviva.com/tunes/england/foggy-dew/foggy-dew.abc
M:C
L:1/8
K:G
d2|g2gg b2bb|e2ee a3d|d2ff a2c'2|b2g4 dd|
gggg b2bb|e3e a2gg|f2d2e2f2|g6 d2|
d3f a3c'|b2g2 d4|zd dd c'3c'|b6 dd|
gggg b2bb|e2e2 a2gg|ffdd eeff|g6 z2|]
W:
W:
W:  From Musica Viva - http://www.musicaviva.com
W:  the Internet center for free sheet music downloads.
